src/assets/images/icons/github-icon.svg

<svg width="53" height="51" viewBox="0 0 53 51" fill="none" xmlns="http://www.w3.org/2000/svg">
<path d="M18.0014 41.1371C18.0014 41.3441 17.7633 41.5098 17.4631 41.5098C17.1215 41.5408 16.8834 41.3752 16.8834 41.1371C16.8834 40.9301 17.1215 40.7645 17.4217 40.7645C17.7322 40.7334 18.0014 40.899 18.0014 41.1371ZM14.782 40.6713C14.7096 40.8783 14.9166 41.1164 15.2271 41.1785C15.4963 41.282 15.8068 41.1785 15.8689 40.9715C15.9311 40.7645 15.7344 40.5264 15.4238 40.4332C15.1547 40.3607 14.8545 40.4643 14.782 40.6713ZM19.3574 40.4953C19.0572 40.5678 18.8502 40.7645 18.8812 41.0025C18.9123 41.2096 19.1814 41.3441 19.492 41.2717C19.7922 41.1992 19.9992 41.0025 19.9682 40.7955C19.9371 40.5988 19.6576 40.4643 19.3574 40.4953ZM26.1688 0.828125C11.8111 0.828125 0.828125 11.7283 0.828125 26.0859C0.828125 37.5658 8.05352 47.3895 18.374 50.8469C19.699 51.085 20.1648 50.2672 20.1648 49.5943C20.1648 48.9525 20.1338 45.4123 20.1338 43.2385C20.1338 43.2385 12.8877 44.7912 11.366 40.1537C11.366 40.1537 10.1859 37.1414 8.48828 36.365C8.48828 36.365 6.11777 34.7398 8.65391 34.7709C8.65391 34.7709 11.2314 34.9779 12.6496 37.4416C14.9166 41.4373 18.7156 40.2883 20.1959 39.6051C20.434 37.9488 21.1068 36.7998 21.8521 36.1166C16.0656 35.4748 10.2273 34.6363 10.2273 24.6781C10.2273 21.8314 11.0141 20.4029 12.6703 18.5811C12.4012 17.9082 11.5213 15.134 12.9395 11.5523C15.1029 10.8795 20.082 14.3473 20.082 14.3473C22.1523 13.7676 24.3779 13.4674 26.5828 13.4674C28.7877 13.4674 31.0133 13.7676 33.0836 14.3473C33.0836 14.3473 38.0627 10.8691 40.2262 11.5523C41.6443 15.1443 40.7645 17.9082 40.4953 18.5811C42.1516 20.4133 43.166 21.8418 43.166 24.6781C43.166 34.6674 37.0689 35.4645 31.2824 36.1166C32.2348 36.9344 33.0422 38.4871 33.0422 40.9197C33.0422 44.4082 33.0111 48.7248 33.0111 49.5736C33.0111 50.2465 33.4873 51.0643 34.802 50.8262C45.1535 47.3895 52.1719 37.5658 52.1719 26.0859C52.1719 11.7283 40.5264 0.828125 26.1688 0.828125ZM10.8898 36.5307C10.7553 36.6342 10.7863 36.8723 10.9623 37.0689C11.1279 37.2346 11.366 37.307 11.5006 37.1725C11.6352 37.0689 11.6041 36.8309 11.4281 36.6342C11.2625 36.4686 11.0244 36.3961 10.8898 36.5307ZM9.77188 35.6922C9.69941 35.8268 9.80293 35.9924 10.01 36.0959C10.1756 36.1994 10.3826 36.1684 10.4551 36.0234C10.5275 35.8889 10.424 35.7232 10.217 35.6197C10.01 35.5576 9.84434 35.5887 9.77188 35.6922ZM13.1258 39.3773C12.9602 39.5119 13.0223 39.8225 13.2604 40.0191C13.4984 40.2572 13.7986 40.2883 13.9332 40.1227C14.0678 39.9881 14.0057 39.6775 13.7986 39.4809C13.5709 39.2428 13.2604 39.2117 13.1258 39.3773ZM11.9457 37.8557C11.7801 37.9592 11.7801 38.2283 11.9457 38.4664C12.1113 38.7045 12.3908 38.808 12.5254 38.7045C12.691 38.5699 12.691 38.3008 12.5254 38.0627C12.3805 37.8246 12.1113 37.7211 11.9457 37.8557Z" fill="#CCD6F6"/>
</svg>

<svg xmlns="http://www.w3.org/2000/svg" width="53" height="51" fill="none"><path fill="#CCD6F6" d="M18.001 41.137c0 .207-.238.373-.538.373-.341.03-.58-.135-.58-.373 0-.207.239-.373.539-.373.31-.03.58.135.58.373Zm-3.219-.466c-.072.207.135.445.445.508.27.103.58 0 .642-.208.062-.206-.135-.445-.445-.538-.27-.072-.57.031-.642.238Zm4.575-.176c-.3.073-.507.27-.476.508.031.207.3.341.611.269.3-.073.507-.27.476-.477-.03-.196-.31-.33-.61-.3ZM26.17.828C11.81.828.829 11.728.829 26.086c0 11.48 7.225 21.303 17.545 24.76 1.325.239 1.79-.579 1.79-1.252 0-.642-.03-4.182-.03-6.355 0 0-7.246 1.552-8.768-3.085 0 0-1.18-3.013-2.878-3.789 0 0-2.37-1.625.166-1.594 0 0 2.577.207 3.996 2.67 2.267 3.996 6.066 2.847 7.546 2.164.238-1.656.91-2.805 1.656-3.488-5.786-.642-11.625-1.48-11.625-11.439 0-2.847.787-4.275 2.443-6.097-.269-.673-1.149-3.447.27-7.029 2.163-.672 7.142 2.795 7.142 2.795a24.32 24.32 0 0 1 6.5-.88c2.206 0 4.431.3 6.502.88 0 0 4.979-3.478 7.142-2.795 1.418 3.592.538 6.356.27 7.03 1.656 1.831 2.67 3.26 2.67 6.096 0 9.99-6.097 10.787-11.884 11.439.953.817 1.76 2.37 1.76 4.803 0 3.488-.03 7.805-.03 8.654 0 .672.475 1.49 1.79 1.252 10.352-3.437 17.37-13.26 17.37-24.74C52.172 11.728 40.526.828 26.169.828Zm-15.28 35.703c-.134.103-.103.341.073.538.166.166.404.238.539.103.134-.103.103-.341-.073-.538-.166-.165-.404-.238-.538-.103Zm-1.117-.839c-.073.135.03.3.238.404.166.103.373.072.445-.073.072-.134-.031-.3-.238-.403-.207-.062-.373-.031-.445.072Zm3.354 3.685c-.166.135-.104.445.134.642.238.238.539.27.673.104.135-.135.073-.445-.134-.642-.228-.238-.539-.27-.673-.104Zm-1.18-1.521c-.166.103-.166.372 0 .61.165.239.445.342.58.239.165-.135.165-.404 0-.642-.146-.238-.415-.342-.58-.207Z"/></svg>
